X: 143
M:C|
L:1/8
K:Bb
uF2|BfdB fBdB|eBgB fBdB|FBdB fBdB|AcBG F2(G"4"A)|
|:uf2|f2(df) (cf)(df)|babf edcB|DFBD EGcB|A2 F2F2(GA)|


